Sources/FrostedUI/Resources/Icons.xcassets/unpin32.imageset/unpin-32.svg

<svg width="32" height="32" viewBox="0 0 32 32" fill="none" xmlns="http://www.w3.org/2000/svg" data-fui-icon="true">
  <path
    d="M1.21997 1.21973C1.51287 0.926965 1.98767 0.926877 2.28052 1.21973L30.7805 29.7197C31.0732 30.0126 31.0732 30.4874 30.7805 30.7803C30.4877 31.0731 30.0129 31.073 29.72 30.7803L23.0276 24.0879C22.9713 24.0316 22.895 24 22.8154 24H17.0502C16.8846 24 16.7502 24.1343 16.7502 24.3V30.25C16.7502 30.6641 16.4143 30.9998 16.0002 31C15.586 31 15.2502 30.6642 15.2502 30.25V24.3C15.2502 24.1343 15.1159 24 14.9502 24H8.69653C5.95755 23.9997 4.14251 21.158 5.29419 18.6729L7.77271 13.3252C7.92224 13.0025 8.0002 12.6506 8.00024 12.2949V9.18481C8.00024 9.10525 7.96864 9.02894 7.91238 8.97268L1.21997 2.28027C0.927077 1.98738 0.927077 1.51262 1.21997 1.21973ZM20.2502 1C22.3212 1.00011 24.0002 2.679 24.0002 4.75V12.2949C24.0003 12.6506 24.0782 13.0025 24.2278 13.3252L26.7063 18.6729C27.3625 20.0889 27.0541 21.6195 26.1617 22.6753C26.0544 22.8022 25.8627 22.8019 25.7452 22.6844L25.1087 22.0479C24.992 21.9312 24.9933 21.7431 25.0931 21.6117C25.5701 20.9834 25.7197 20.1124 25.345 19.3037L22.8665 13.9551C22.6254 13.4348 22.5003 12.8683 22.5002 12.2949V4.75C22.5002 3.50743 21.4928 2.50011 20.2502 2.5H11.7502C10.5076 2.5 9.50024 3.50736 9.50024 4.75V5.71519C9.50024 5.98246 9.1771 6.11631 8.98811 5.92732L8.08811 5.02732C8.03185 4.97106 8.00024 4.89475 8.00024 4.81519V4.75C8.00024 2.67893 9.67918 1 11.7502 1H20.2502ZM9.50024 12.2949C9.5002 12.8683 9.37507 13.4348 9.13403 13.9551L6.65552 19.3037C5.96453 20.7948 7.05324 22.4997 8.69653 22.5H20.7154C20.9827 22.5 21.1166 22.1769 20.9276 21.9879L10.0124 11.0727C9.82339 10.8837 9.50024 11.0175 9.50024 11.2848V12.2949Z"
    fill="currentColor"
  />
</svg>

<svg xmlns="http://www.w3.org/2000/svg" width="32" height="32" fill="none" data-fui-icon="true" viewBox="0 0 32 32"><path fill="currentColor" d="M1.22 1.22a.75.75 0 0 1 1.06 0l28.5 28.5a.75.75 0 0 1-1.06 1.06l-6.692-6.692a.3.3 0 0 0-.213-.088H17.05a.3.3 0 0 0-.3.3v5.95a.75.75 0 0 1-1.5 0V24.3a.3.3 0 0 0-.3-.3H8.697c-2.74 0-4.554-2.842-3.403-5.327l2.479-5.348c.15-.322.227-.674.227-1.03v-3.11a.3.3 0 0 0-.088-.212L1.22 2.28a.75.75 0 0 1 0-1.06M20.25 1A3.75 3.75 0 0 1 24 4.75v7.545c0 .356.078.707.228 1.03l2.478 5.348c.657 1.416.348 2.947-.544 4.002a.28.28 0 0 1-.417.01l-.636-.637c-.117-.117-.116-.305-.016-.436.477-.629.627-1.5.252-2.308l-2.479-5.349a3.95 3.95 0 0 1-.366-1.66V4.75a2.25 2.25 0 0 0-2.25-2.25h-8.5A2.25 2.25 0 0 0 9.5 4.75v.965a.3.3 0 0 1-.512.212l-.9-.9A.3.3 0 0 1 8 4.815V4.75A3.75 3.75 0 0 1 11.75 1zM9.5 12.295a3.95 3.95 0 0 1-.366 1.66l-2.478 5.349c-.691 1.49.397 3.196 2.04 3.196h12.02a.3.3 0 0 0 .212-.512L10.012 11.073a.3.3 0 0 0-.512.212z"/></svg>
